dist/img/sprites/company-insurance-9.svg

<svg width="348" height="93" viewBox="0 0 348 93" xmlns="http://www.w3.org/2000/svg">
<path d="M128.88 42.8754V49.7774H116.102C116.568 53.4312 117.652 56.1133 119.362 57.8197C121.072 59.5321 123.146 60.3893 125.571 60.3893C128.061 60.3893 130.125 59.6466 131.759 58.1549C133.387 56.6613 134.385 54.5132 134.754 51.7167L143.025 54.2864C142.086 58.3738 140.174 61.5838 137.292 63.9327C134.421 66.2735 130.685 67.4499 126.091 67.46C121.38 67.4499 117.672 66.3397 114.951 64.1033C112.233 61.8689 110.294 59.2972 109.124 56.3762C107.955 53.4573 107.377 50.1689 107.377 46.5252C107.377 40.1191 109.047 34.9576 112.404 31.0309C115.761 27.1141 120.38 25.1447 126.254 25.1347C130.799 25.1447 134.489 26.2288 137.342 28.3869C140.182 30.545 142.037 33.472 142.913 37.172L134.754 39.0551C134.166 36.8949 133.072 35.2226 131.474 34.0442C129.886 32.8557 128.071 32.2675 126.037 32.2675C123.118 32.2675 120.807 33.2753 119.117 35.2909C117.425 37.3045 116.417 39.832 116.102 42.8754H128.88ZM261.403 25.8775H269.67V66.7172H261.403V25.8775ZM275.821 66.7172V25.8775H284.092V41.962H300.179V25.8775H308.448V66.7172H300.179V48.866H284.092V66.7172H275.821ZM339.143 51.6605L347.133 54.1137C345.905 58.6086 343.859 61.9472 341.008 64.1354C338.157 66.3116 334.544 67.4058 330.161 67.4058C324.735 67.4058 320.274 65.5488 316.779 61.8428C313.286 58.1369 311.539 53.0658 311.539 46.6296C311.539 39.832 313.296 34.5501 316.805 30.7859C320.312 27.0198 324.932 25.1347 330.657 25.1347C335.66 25.1347 339.715 26.6183 342.835 29.5754C344.698 31.324 346.087 33.8334 347.019 37.1158L338.86 39.0551C338.376 36.9431 337.37 35.2688 335.837 34.0442C334.295 32.8176 332.432 32.2093 330.25 32.2093C327.214 32.2093 324.751 33.2954 322.87 35.4696C320.979 37.6377 320.037 41.157 320.037 46.0213C320.037 51.1767 320.971 54.8565 322.824 57.0428C324.685 59.237 327.102 60.3311 330.077 60.3311C332.271 60.3311 334.166 59.6365 335.742 58.2393C337.322 56.84 338.461 54.6538 339.143 51.6605ZM146.817 25.8775H163.149C166.393 25.8775 168.798 26.012 170.384 26.277C171.911 26.5273 173.366 27.1002 174.654 27.9573C175.939 28.8468 177.01 30.0104 177.79 31.3641C178.625 32.7814 179.045 34.3775 179.045 36.1361C179.045 38.0372 178.533 39.7958 177.507 41.3858C176.494 42.9648 175.038 44.2099 173.321 44.9653C175.802 45.6981 177.704 46.9327 179.045 48.6853C180.376 50.4359 181.04 52.4896 181.04 54.8565C181.04 56.7195 180.613 58.5243 179.747 60.285C178.884 62.0436 177.704 63.4469 176.202 64.5028C174.708 65.5488 172.865 66.1932 170.669 66.4421C169.302 66.5867 165.982 66.679 160.724 66.7172H146.817V25.8775ZM155.089 32.665V42.0804H160.489C163.693 42.0804 165.688 42.0282 166.467 41.9339C167.877 41.7713 168.989 41.2875 169.796 40.4824C170.603 39.6714 171.002 38.6154 171.002 37.3045C171.002 36.0397 170.651 35.0239 169.956 34.2329C169.264 33.4459 168.226 32.9682 166.857 32.8075C166.04 32.7132 163.693 32.665 159.822 32.665H155.089ZM155.089 48.866V59.8172H162.731C165.698 59.8172 167.592 59.7309 168.391 59.5703C169.615 59.3394 170.615 58.8014 171.384 57.9341C172.155 57.0568 172.544 55.9105 172.544 54.455C172.544 53.2184 172.249 52.1845 171.651 51.3272C171.061 50.472 170.195 49.8457 169.073 49.4522C167.953 49.0667 165.508 48.866 161.754 48.866H155.089ZM184.586 66.7172V25.8775H197.813C202.82 25.8775 206.082 26.0802 207.604 26.4858C209.941 27.1061 211.9 28.4351 213.478 30.4868C215.058 32.5425 215.845 35.1965 215.845 38.4428C215.845 40.9542 215.387 43.0561 214.488 44.7666C213.575 46.477 212.42 47.818 211.027 48.7977C209.628 49.7694 208.202 50.4158 206.757 50.729C204.79 51.1165 201.947 51.3172 198.221 51.3172H192.857V66.7172H184.586ZM192.857 32.7814V44.4172H197.354C200.598 44.4172 202.754 44.1964 203.848 43.7688C204.94 43.3392 205.795 42.6747 206.416 41.7532C207.034 40.8418 207.345 39.7858 207.345 38.5672C207.345 37.0756 206.91 35.849 206.046 34.8813C205.183 33.9143 204.016 33.27 202.738 33.0545C201.754 32.8758 199.787 32.7814 196.824 32.7814H192.857ZM217.889 46.5452C217.889 42.3836 218.515 38.8844 219.762 36.0497C220.684 33.9692 221.971 32.0703 223.562 30.4426C225.17 28.7864 226.931 27.5598 228.84 26.7548C231.39 25.6787 234.325 25.1347 237.655 25.1347C243.682 25.1347 248.492 27.0097 252.114 30.7438C255.725 34.4899 257.53 39.6915 257.53 46.3545C257.53 52.9634 255.733 58.1369 252.152 61.8629C248.566 65.5969 243.766 67.46 237.766 67.46C231.691 67.46 226.855 65.607 223.271 61.891C219.684 58.183 217.889 53.0658 217.889 46.5452ZM226.387 46.2682C226.387 50.8976 227.461 54.4068 229.601 56.8039C231.739 59.1908 234.459 60.3893 237.748 60.3893C241.046 60.3893 243.748 59.2029 245.866 56.83C247.978 54.455 249.034 50.8976 249.034 46.1558C249.034 41.4701 248.006 37.971 245.944 35.6683C243.889 33.3596 241.162 32.2093 237.748 32.2093C234.345 32.2093 231.596 33.3797 229.515 35.7085C227.433 38.0473 226.387 41.5645 226.387 46.2682Z" />
<path fill-rule="evenodd" clip-rule="evenodd" d="M43.7286 92.9257V64.9504H89.1816L88.491 66.4802L87.7502 67.9839L86.9352 69.4654L86.0759 70.8928L85.1866 72.2981L84.227 73.6532L83.2152 75.0063L82.1773 76.2891L81.0952 77.5478L79.9629 78.7544L78.7805 79.9388L77.5699 81.0731L76.3132 82.1552L75.0083 83.2172L73.6773 84.2009L72.3182 85.1625L70.9149 86.0519L69.4855 86.9151L68.0059 87.7262L66.5023 88.4669L64.9765 89.1856L63.4227 89.82L61.8207 90.4163L60.2186 90.9342L58.5885 91.4L56.9142 91.8155L55.2379 92.1889L53.5395 92.4821L51.811 92.7069L50.0604 92.8795L48.2877 92.9759L46.513 93H45.7964L45.1078 92.9759L44.4192 92.9538L43.7286 92.9257ZM8.80112 63.0533H12.7941L14.0268 59.2369L15.2353 63.0533H19.2525L16.0203 65.3961L17.2529 69.2145L14.0268 66.8737L10.7966 69.2145L12.0032 65.3961L8.80112 63.0533ZM4.16769 44.2947H8.05833L9.24278 40.5988L10.4533 44.2947H14.3219L11.1921 46.5893L12.3746 50.2872L9.24278 47.9926L6.11501 50.2872L7.29746 46.5893L4.16769 44.2947ZM9.58808 24.6267H13.5329L14.6893 20.4851L15.9741 24.6267H19.9671L16.739 26.9916L17.9696 30.7638L14.7415 28.421L11.5615 30.7638L12.7681 26.9916L9.58808 24.6267ZM23.7112 11.1459H27.5838L28.7683 7.44602L29.9487 11.1459H33.8414L30.6895 13.4346L31.894 17.1084L28.7683 14.8398L25.6345 17.1084L26.843 13.4346L23.7112 11.1459ZM23.4904 76.4136H27.4352L28.6679 72.6193L29.8744 76.4136H33.8173L30.6373 78.7323L31.8479 82.5226L28.6679 80.1858L25.4598 82.5226L26.6704 78.7323L23.4904 76.4136ZM91.3257 58.9639L43.7286 58.9358L43.7527 58.8635L43.7286 31.4785H90.5126L90.8057 32.3638L91.1029 33.2531L91.3498 34.1646L91.5967 35.08L91.8155 35.9914L92.0143 36.925L92.211 37.8625L92.3837 38.798L92.5322 39.7355L92.6527 40.6972L92.7551 41.6327L92.8534 42.6184L92.9277 43.58L92.9739 44.5396L93.002 45.5293L93.0261 46.513L93.002 47.3261V48.1171L92.9518 48.9321L92.9016 49.7191L92.8534 50.5101L92.7792 51.2991L92.6808 52.086L92.5824 52.875L92.482 53.6419L92.3355 54.4027L92.211 55.1917L92.0625 55.9546L91.8898 56.6954L91.7192 57.4602L91.5224 58.199L91.3257 58.9639ZM88.0213 25.5863H43.7286V0.100372L44.4192 0.0501862L45.1078 0.0281067L45.7964 0H46.513L48.2114 0.0281067L49.8657 0.124458L51.542 0.273018L53.1661 0.467758L54.7942 0.740784L56.3982 1.062L57.9983 1.43138L59.5541 1.87505L61.0819 2.34281L62.6076 2.88485L64.1113 3.47708L65.5688 4.09139L67.0202 4.78601L68.4275 5.52278L69.8047 6.28766L71.1618 7.10072L72.4928 7.96397L73.7997 8.8774L75.0545 9.83701L76.2891 10.8247L77.4736 11.8586L78.6319 12.9427L79.7622 14.0509L80.8483 15.1851L81.8862 16.3696L82.896 17.6002L83.8536 18.8349L84.767 20.1398L85.6564 21.4467L86.4935 22.8018L87.2805 24.185L88.0213 25.5863ZM38.3784 0.71669V92.2873L36.3568 91.8898L34.3613 91.4L32.412 90.8077L30.4907 90.1653L28.6197 89.4005L26.7708 88.5894L24.968 87.7021L23.2174 86.7184L21.4949 85.6845L19.8447 84.5703L18.2406 83.3858L16.6848 82.1311L15.1831 80.8262L13.7297 79.445L12.3485 78.0136L11.0436 76.5119L9.78683 74.9822L8.57627 73.3842L7.4681 71.7279L6.40611 70.0316L5.42441 68.281L4.51098 66.4802L3.69791 64.6292L2.93505 62.7602L2.26854 60.839L1.67631 58.8896L1.18446 56.8941L0.76488 54.8705L0.421585 52.8248L0.194733 50.753L0.0481817 48.633L0 46.513L0.0481817 44.3931L0.194733 42.2771L0.421585 40.2033L0.76488 38.1315L1.18446 36.1119L1.67631 34.1425L2.26854 32.1671L2.93505 30.2699L3.69791 28.3748L4.51098 26.5499L5.42441 24.7491L6.40611 22.9986L7.4681 21.2981L8.57627 19.6459L9.78683 18.0459L11.0436 16.4921L12.3485 15.0145L13.7297 13.559L15.1831 12.2019L16.6848 10.8729L18.2406 9.64228L19.8447 8.45582L21.4949 7.32155L23.2174 6.28766L24.968 5.32403L26.7708 4.4146L28.6197 3.59954L30.4907 2.86277L32.412 2.19827L34.3613 1.60604L36.3568 1.11217L38.3784 0.71669Z" />
<path d="M119.64 91.9762C119.001 92.3054 117.588 92.6387 115.801 92.6387C111.08 92.6387 108.213 89.6815 108.213 85.1585C108.213 80.2601 111.61 77.303 116.155 77.303C117.942 77.303 119.22 77.6764 119.772 77.9655L119.178 80.1276C118.258 79.7358 117.266 79.5402 116.265 79.5534C113.24 79.5534 111.058 81.4486 111.058 85.024C111.058 88.2903 112.979 90.3882 116.243 90.3882C117.345 90.3882 118.494 90.1694 119.2 89.8361L119.64 91.9762Z" />
<path d="M135.02 79.8176H130.786V77.5471H142.012V79.8176H137.736V92.415H135.02V79.8176Z" />
<path d="M156.095 84.6734C156.427 84.7637 156.868 84.7838 157.418 84.7838C159.448 84.7838 160.685 83.792 160.685 82.0495C160.685 80.3953 159.536 79.5099 157.663 79.5099C157.137 79.4998 156.612 79.5455 156.095 79.6464V84.6734ZM153.403 77.7453C154.377 77.5686 155.72 77.4361 157.553 77.4361C159.536 77.4361 160.994 77.8557 161.941 78.6507C162.827 79.3754 163.399 80.5478 163.399 81.9411C163.399 83.3524 162.957 84.5208 162.118 85.3118C161.038 86.3938 159.338 86.8997 157.418 86.8997C156.911 86.8997 156.449 86.8817 156.095 86.8134V92.4165H153.403V77.7453Z" />
<path d="M181.047 86.1509L179.879 82.4891C179.592 81.5837 179.347 80.5679 179.13 79.7087H179.084C178.863 80.5679 178.644 81.6058 178.377 82.4891L177.231 86.1509H181.047ZM176.789 88.2047L175.511 92.4165H172.71L177.476 77.5485H180.937L185.771 92.4165H182.856L181.511 88.2047H176.789Z" />
<path d="M205.45 92.4165L203.837 89.4634C203.199 88.3151 202.779 87.5201 202.362 86.6608H202.296C201.889 87.6146 201.439 88.5497 200.949 89.4634L199.469 92.4165H196.361L200.772 84.8962L196.538 77.5485H199.646L201.256 80.6141C201.744 81.5396 202.097 82.2683 202.492 83.1075H202.539C202.934 82.178 203.241 81.5195 203.707 80.6141L205.295 77.5485H208.407L204.058 84.8059L208.583 92.4165H205.45Z" />
<path d="M222.044 77.5473L224.562 83.2829C224.957 84.2526 225.266 85.1379 225.62 86.0172H225.686C225.907 85.3346 226.17 84.3851 226.523 83.2167L228.464 77.5473H231.333L228.4 84.9572C227.539 87.1234 226.589 89.3738 225.531 90.7611C224.562 91.9776 223.393 92.6582 221.825 92.6582C221.183 92.6582 220.789 92.592 220.434 92.4635L220.657 90.2752C220.876 90.3455 221.165 90.3656 221.582 90.3656C222.839 90.3656 223.636 89.3056 224.009 88.4664C224.142 88.1573 224.096 87.9585 223.943 87.6714L218.979 77.5473H222.044Z" />
<path d="M245.133 90.4498C245.609 90.5016 246.089 90.5237 246.568 90.516C248.308 90.516 249.856 89.8576 249.856 88.0227C249.856 86.3062 248.353 85.5955 246.478 85.5955H245.133V90.4498ZM245.133 83.6121H246.522C248.399 83.6121 249.455 82.7287 249.455 81.47C249.455 80.0788 248.399 79.4444 246.678 79.4444C245.881 79.4444 245.42 79.4865 245.133 79.5528V83.6121ZM242.442 77.742C243.302 77.5653 244.87 77.4368 246.391 77.4368C248.399 77.4368 249.633 77.6797 250.649 78.3844C251.575 78.9345 252.193 79.9021 252.193 81.1608C252.193 82.53 251.332 83.7887 249.724 84.385V84.4271C251.288 84.8226 252.723 86.0613 252.723 88.113C252.723 89.434 252.151 90.4739 251.288 91.1785C250.23 92.108 248.485 92.5718 245.771 92.5718C244.271 92.5718 243.125 92.4614 242.442 92.371V77.742Z" />
<path d="M272.034 86.1509L270.863 82.4891C270.578 81.5837 270.335 80.5679 270.114 79.7087H270.068C269.85 80.5679 269.629 81.6058 269.364 82.4891L268.217 86.1509H272.034ZM267.776 88.2047L266.497 92.4165H263.694L268.46 77.5485H271.923L276.76 92.4165H273.841L272.495 88.2047H267.776Z" />
<path d="M291.184 77.5471V83.5035H297.474V77.5471H300.184V92.415H297.474V85.8644H291.184V92.415H288.468V77.5471H291.184Z" />
<path d="M315.654 77.5471V83.5035H321.943V77.5471H324.658V92.415H321.943V85.8644H315.654V92.415H312.941V77.5471H315.654Z" />
<path d="M344.282 79.641C343.758 79.5316 343.224 79.4804 342.69 79.4884C341.059 79.4884 339.69 80.1268 339.69 81.8914C339.69 83.4593 341.077 84.3186 342.866 84.3186C343.398 84.3186 343.928 84.3186 344.282 84.2764V79.641ZM336.095 92.415C336.36 91.9774 336.581 91.4474 336.777 90.8933C337.396 89.1969 337.769 87.2978 338.941 86.1495C339.271 85.8202 339.714 85.5532 340.176 85.4006V85.3344C338.436 85.0252 336.976 83.7886 336.976 81.6947C336.976 80.3516 337.548 79.2876 338.436 78.583C339.469 77.7659 341.126 77.4367 343.023 77.4367C344.478 77.4367 345.936 77.5672 346.972 77.7438V92.415H344.282V86.306H343.175C342.402 86.306 341.81 86.5028 341.344 86.9465C340.373 87.9181 339.975 89.9217 339.494 91.2466C339.363 91.6523 339.193 92.0438 338.984 92.415H336.095Z" />
</svg>

<svg width="348" height="93" viewBox="0 0 348 93" xmlns="http://www.w3.org/2000/svg"><path d="M128.88 42.875v6.902h-12.778c.466 3.654 1.55 6.336 3.26 8.043 1.71 1.712 3.784 2.57 6.209 2.57 2.49 0 4.554-.743 6.188-2.235 1.628-1.494 2.626-3.642 2.995-6.438l8.271 2.57c-.939 4.087-2.851 7.297-5.733 9.646-2.871 2.34-6.607 3.517-11.201 3.527-4.711-.01-8.419-1.12-11.14-3.357-2.718-2.234-4.657-4.806-5.827-7.727-1.169-2.919-1.747-6.207-1.747-9.85 0-6.407 1.67-11.568 5.027-15.495 3.357-3.917 7.976-5.886 13.85-5.896 4.545.01 8.235 1.094 11.088 3.252 2.84 2.158 4.695 5.085 5.571 8.785l-8.159 1.883c-.588-2.16-1.682-3.832-3.28-5.01-1.588-1.19-3.403-1.778-5.437-1.778-2.919 0-5.23 1.008-6.92 3.024-1.692 2.014-2.7 4.541-3.015 7.584h12.778zm132.523-16.997h8.267v40.84h-8.267v-40.84zm14.418 40.84v-40.84h8.271v16.084h16.087V25.877h8.269v40.84h-8.269V48.866h-16.087v17.851h-8.271zm63.322-15.058l7.99 2.454c-1.228 4.495-3.274 7.833-6.125 10.021-2.851 2.177-6.464 3.27-10.847 3.27-5.426 0-9.887-1.856-13.382-5.562-3.493-3.706-5.24-8.777-5.24-15.213 0-6.798 1.757-12.08 5.266-15.844 3.507-3.766 8.127-5.651 13.852-5.651 5.003 0 9.058 1.483 12.178 4.44 1.863 1.749 3.252 4.258 4.184 7.54l-8.159 1.94c-.484-2.112-1.49-3.786-3.023-5.01-1.542-1.227-3.405-1.836-5.587-1.836-3.036 0-5.499 1.086-7.38 3.26-1.891 2.169-2.833 5.688-2.833 10.552 0 5.156.934 8.835 2.787 11.022 1.861 2.194 4.278 3.288 7.253 3.288 2.194 0 4.089-.695 5.665-2.092 1.58-1.399 2.719-3.585 3.401-6.578zM146.817 25.878h16.332c3.244 0 5.649.134 7.235.399a10.88 10.88 0 014.27 1.68 10.548 10.548 0 013.136 3.407c.835 1.417 1.255 3.013 1.255 4.772 0 1.901-.512 3.66-1.538 5.25a9.536 9.536 0 01-4.186 3.58c2.481.732 4.383 1.967 5.724 3.72 1.331 1.75 1.995 3.804 1.995 6.17 0 1.863-.427 3.668-1.293 5.429-.863 1.759-2.043 3.162-3.545 4.218-1.494 1.046-3.337 1.69-5.533 1.94-1.367.144-4.687.236-9.945.274h-13.907v-40.84zm8.272 6.787v9.415h5.4c3.204 0 5.199-.052 5.978-.146 1.41-.163 2.522-.646 3.329-1.452.807-.81 1.206-1.867 1.206-3.178 0-1.264-.351-2.28-1.046-3.071-.692-.787-1.73-1.265-3.099-1.425-.817-.095-3.164-.143-7.035-.143h-4.733zm0 16.201v10.951h7.642c2.967 0 4.861-.086 5.66-.247 1.224-.23 2.224-.769 2.993-1.636.771-.877 1.16-2.023 1.16-3.479 0-1.237-.295-2.27-.893-3.128-.59-.855-1.456-1.481-2.578-1.875-1.12-.385-3.565-.586-7.319-.586h-6.665zm29.497 17.851v-40.84h13.227c5.007 0 8.269.203 9.791.609 2.337.62 4.296 1.95 5.874 4 1.58 2.056 2.367 4.71 2.367 7.957 0 2.511-.458 4.613-1.357 6.324-.913 1.71-2.068 3.051-3.461 4.03-1.399.972-2.825 1.619-4.27 1.932-1.967.388-4.81.588-8.536.588h-5.364v15.4h-8.271zm8.271-33.936v11.636h4.497c3.244 0 5.4-.22 6.494-.648 1.092-.43 1.947-1.094 2.568-2.016.618-.911.929-1.967.929-3.186 0-1.491-.435-2.718-1.299-3.686a5.706 5.706 0 00-3.308-1.827c-.984-.178-2.951-.273-5.914-.273h-3.967zm25.032 13.764c0-4.161.626-7.66 1.873-10.495a19.083 19.083 0 013.8-5.607c1.608-1.657 3.369-2.883 5.278-3.688 2.55-1.076 5.485-1.62 8.815-1.62 6.027 0 10.837 1.875 14.459 5.609 3.611 3.746 5.416 8.947 5.416 15.61 0 6.61-1.797 11.783-5.378 15.509-3.586 3.734-8.386 5.597-14.386 5.597-6.075 0-10.911-1.853-14.495-5.569-3.587-3.708-5.382-8.825-5.382-15.346zm8.498-.277c0 4.63 1.074 8.139 3.214 10.536 2.138 2.387 4.858 3.585 8.147 3.585 3.298 0 6-1.186 8.118-3.559 2.112-2.375 3.168-5.932 3.168-10.674 0-4.686-1.028-8.185-3.09-10.488-2.055-2.308-4.782-3.459-8.196-3.459-3.403 0-6.152 1.17-8.233 3.5-2.082 2.338-3.128 5.855-3.128 10.56z"/><path fill-rule="evenodd" clip-rule="evenodd" d="M43.729 92.926V64.95h45.453l-.691 1.53-.74 1.504-.816 1.481-.86 1.428-.888 1.405-.96 1.355-1.012 1.353-1.038 1.283-1.082 1.259-1.132 1.206-1.182 1.185-1.211 1.134-1.257 1.082-1.305 1.062-1.33.984-1.36.962-1.403.889-1.43.863-1.48.811-1.503.74-1.525.72-1.554.634-1.602.596-1.602.518-1.63.466-1.675.415-1.676.374-1.699.293-1.728.225-1.75.172-1.773.097-1.775.024h-.717l-.688-.024-.689-.022-.69-.028zM8.8 63.053h3.993l1.233-3.816 1.208 3.816h4.018l-3.233 2.343 1.233 3.819-3.226-2.341-3.23 2.34 1.206-3.818L8.8 63.053zM4.168 44.295h3.89l1.185-3.696 1.21 3.696h3.869l-3.13 2.294 1.183 3.698-3.132-2.294-3.128 2.294 1.182-3.698-3.13-2.294zm5.42-19.668h3.945l1.156-4.142 1.285 4.142h3.993l-3.228 2.365 1.23 3.772-3.228-2.343-3.18 2.343 1.207-3.772-3.18-2.365zm14.123-13.481h3.873l1.184-3.7 1.18 3.7h3.893l-3.152 2.289 1.205 3.673-3.126-2.268-3.134 2.268 1.209-3.673-3.132-2.29zm-.22 65.268h3.944l1.233-3.795 1.206 3.795h3.943l-3.18 2.318 1.21 3.79-3.18-2.336-3.207 2.337 1.21-3.79-3.18-2.32zm67.835-17.45l-47.597-.028.024-.072-.024-27.385h46.784l.293.885.297.89.247.91.247.916.219.911.198.934.197.938.173.935.148.938.12.961.103.936.098.985.075.962.046.96.028.99.024.983-.024.813v.791l-.05.815-.05.787-.049.791-.074.79-.098.786-.099.789-.1.767-.147.76-.124.79-.148.763-.173.74-.17.765-.198.739-.196.765zM88.02 25.586H43.73V.1l.69-.05.689-.022.688-.028h.717l1.698.028 1.655.096 1.676.149 1.624.195 1.628.273 1.604.321 1.6.37 1.556.443 1.528.468 1.526.542 1.503.592 1.458.614 1.451.695 1.407.737 1.378.765 1.357.813 1.33.863 1.308.913 1.255.96 1.234.988 1.185 1.034 1.158 1.084 1.13 1.108 1.086 1.134 1.038 1.185 1.01 1.23.958 1.235.913 1.305.89 1.307.837 1.355.787 1.383.74 1.401zM38.378.716v91.571l-2.021-.397-1.996-.49-1.949-.592-1.921-.643-1.871-.765-1.85-.81-1.802-.888-1.75-.984-1.723-1.034-1.65-1.114-1.604-1.184-1.556-1.255-1.502-1.305-1.453-1.381-1.382-1.431-1.304-1.502-1.257-1.53-1.21-1.598-1.109-1.656-1.062-1.696-.982-1.751-.913-1.8-.813-1.852-.763-1.869-.666-1.921-.593-1.95-.492-1.995-.42-2.023-.342-2.046-.227-2.072-.147-2.12L0 46.513l.048-2.12.147-2.116.227-2.074.343-2.072.42-2.02.491-1.968.593-1.976.666-1.897.763-1.895.813-1.825.913-1.8.982-1.751 1.062-1.7 1.108-1.653 1.21-1.6 1.258-1.554 1.304-1.478 1.382-1.455 1.453-1.357 1.502-1.33 1.556-1.23 1.604-1.186 1.65-1.134 1.722-1.034 1.751-.964 1.803-.91L28.62 3.6l1.87-.737 1.922-.665 1.95-.592 1.995-.494 2.021-.395z"/><path d="M119.64 91.976c-.639.33-2.052.663-3.839.663-4.721 0-7.588-2.957-7.588-7.48 0-4.899 3.397-7.856 7.942-7.856 1.787 0 3.065.373 3.617.663l-.594 2.162a7.192 7.192 0 00-2.913-.575c-3.025 0-5.207 1.896-5.207 5.471 0 3.266 1.921 5.364 5.185 5.364 1.102 0 2.251-.219 2.957-.552l.44 2.14zm15.38-12.158h-4.234v-2.27h11.226v2.27h-4.276v12.597h-2.716V79.818zm21.075 4.855c.332.09.773.11 1.323.11 2.03 0 3.267-.991 3.267-2.734 0-1.654-1.149-2.54-3.022-2.54a7.436 7.436 0 00-1.568.137v5.027zm-2.692-6.928c.974-.176 2.317-.309 4.15-.309 1.983 0 3.441.42 4.388 1.215.886.724 1.458 1.897 1.458 3.29 0 1.411-.442 2.58-1.281 3.37-1.08 1.083-2.78 1.589-4.7 1.589-.507 0-.969-.018-1.323-.087v5.603h-2.692v-14.67zm27.644 8.405l-1.168-3.66c-.287-.906-.532-1.922-.749-2.781h-.046c-.221.859-.44 1.897-.707 2.78l-1.146 3.662h3.816zm-4.258 2.055l-1.278 4.212h-2.801l4.766-14.868h3.461l4.834 14.867h-2.915l-1.345-4.211h-4.722zm28.661 4.211l-1.613-2.953a54.451 54.451 0 01-1.475-2.802h-.066a34.982 34.982 0 01-1.347 2.802l-1.48 2.954h-3.108l4.411-7.52-4.234-7.349h3.108l1.61 3.066c.488.926.841 1.654 1.236 2.493h.047c.395-.929.702-1.588 1.168-2.493l1.588-3.066h3.112l-4.349 7.258 4.525 7.61h-3.133zm16.594-14.869l2.518 5.736c.395.97.704 1.855 1.058 2.734h.066c.221-.682.484-1.632.837-2.8l1.941-5.67h2.869l-2.933 7.41c-.861 2.166-1.811 4.417-2.869 5.804-.969 1.217-2.138 1.897-3.706 1.897-.642 0-1.036-.066-1.391-.195l.223-2.188c.219.07.508.09.925.09 1.257 0 2.054-1.06 2.427-1.899.133-.309.087-.507-.066-.795l-4.964-10.124h3.065zm23.089 12.903c.476.052.956.074 1.435.066 1.74 0 3.288-.658 3.288-2.493 0-1.717-1.503-2.427-3.378-2.427h-1.345v4.854zm0-6.838h1.389c1.877 0 2.933-.883 2.933-2.142 0-1.391-1.056-2.026-2.777-2.026-.797 0-1.258.043-1.545.109v4.06zm-2.691-5.87c.86-.177 2.428-.305 3.949-.305 2.008 0 3.242.243 4.258.947.926.55 1.544 1.518 1.544 2.777 0 1.369-.861 2.628-2.469 3.224v.042c1.564.396 2.999 1.634 2.999 3.686 0 1.321-.572 2.36-1.435 3.066-1.058.929-2.803 1.393-5.517 1.393-1.5 0-2.646-.11-3.329-.201V77.742zm29.592 8.408l-1.171-3.66c-.285-.906-.528-1.922-.749-2.781h-.046c-.218.859-.439 1.897-.704 2.78l-1.147 3.662h3.817zm-4.258 2.055l-1.279 4.212h-2.803l4.766-14.868h3.463l4.837 14.867h-2.919l-1.346-4.211h-4.719zm23.408-10.658v5.957h6.29v-5.957h2.71v14.868h-2.71v-6.55h-6.29v6.55h-2.716V77.547h2.716zm24.47 0v5.957h6.289v-5.957h2.715v14.868h-2.715v-6.55h-6.289v6.55h-2.713V77.547h2.713zm28.628 2.094a7.259 7.259 0 00-1.592-.153c-1.631 0-3 .639-3 2.403 0 1.568 1.387 2.428 3.176 2.428.532 0 1.062 0 1.416-.043v-4.635zm-8.187 12.774c.265-.438.486-.968.682-1.522.619-1.696.992-3.595 2.164-4.743.33-.33.773-.597 1.235-.75v-.066c-1.74-.309-3.2-1.545-3.2-3.64 0-1.342.572-2.406 1.46-3.111 1.033-.817 2.69-1.146 4.587-1.146 1.455 0 2.913.13 3.949.307v14.671h-2.69v-6.109h-1.107c-.773 0-1.365.197-1.831.64-.971.972-1.369 2.976-1.85 4.3a6.368 6.368 0 01-.51 1.169h-2.889z"/></svg>
